;FLAVOR:UltiGCode
;TIME:644
;MATERIAL:1002
;MATERIAL2:0
;NOZZLE_DIAMETER:0.4
;Generated with Cura_SteamEngine 3.6.0
M82 ;absolute extrusion mode

G92 E0
G10
;LAYER_COUNT:53
;LAYER:0
M107
G0 F3600 X97.623 Y109.485 Z0.3
;TYPE:SKIRT
G11
G1 F1500 X98.222 Y108.97 E0.09479
G1 X98.87 Y108.519 E0.18953
G1 X99.561 Y108.135 E0.2844
G1 X100.286 Y107.823 E0.37911
G1 X101.039 Y107.586 E0.47384
G1 X101.78 Y107.432 E0.56466
G1 X104.312 Y107.031 E0.87229
G1 X105.496 Y106.428 E1.03173
G1 X106.428 Y105.496 E1.1899
G1 X107.031 Y104.312 E1.34934
G1 X107.433 Y101.778 E1.65723
G1 X107.596 Y101.005 E1.75203
G1 X107.837 Y100.253 E1.84679
G1 X108.152 Y99.529 E1.94153
G1 X108.539 Y98.841 E2.03626
G1 X108.993 Y98.195 E2.13101
G1 X109.51 Y97.598 E2.22578
G1 X110.085 Y97.057 E2.32052
G1 X110.712 Y96.577 E2.41527
G1 X111.384 Y96.162 E2.51005
G1 X112.095 Y95.818 E2.60483
G1 X112.837 Y95.547 E2.69963
G1 X113.602 Y95.352 E2.79436
G1 X114.383 Y95.237 E2.88909
G1 X115.137 Y95.2 E2.97968
G1 X118.863 Y95.2 E3.4268
G1 X119.652 Y95.24 E3.5216
G1 X120.432 Y95.359 E3.61629
G1 X121.197 Y95.557 E3.71111
G1 X121.937 Y95.831 E3.8058
G1 X122.646 Y96.179 E3.90058
G1 X123.317 Y96.597 E3.99544
G1 X123.941 Y97.08 E4.09014
G1 X124.514 Y97.623 E4.18487
G1 X125.029 Y98.222 E4.27966
G1 X125.48 Y98.87 E4.3744
G1 X125.864 Y99.561 E4.46926
G1 X126.176 Y100.286 E4.56398
G1 X126.413 Y101.039 E4.65871
G1 X126.572 Y101.813 E4.75353
G1 X126.653 Y102.598 E4.84823
G1 X126.653 Y103.388 E4.94303
G1 X126.577 Y104.157 E5.03576
G1 X125.884 Y108.776 E5.59624
G1 X125.727 Y109.55 E5.69101
G1 X125.375 Y110.608 E5.82481
G1 X124.81 Y111.97 E6.00176
G1 X124.557 Y112.518 E6.07419
G1 X123.11 Y115.362 E6.4571
G1 X122.717 Y116.047 E6.55187
G1 X122.344 Y116.576 E6.62954
G1 X121.443 Y117.749 E6.80704
G1 X120.772 Y118.513 E6.92905
G1 X118.516 Y120.769 E7.31191
G1 X117.755 Y121.438 E7.4335
G1 X116.583 Y122.339 E7.6109
G1 X115.933 Y122.788 E7.7057
G1 X115.367 Y123.106 E7.7836
G1 X112.52 Y124.555 E8.16695
G1 X111.971 Y124.809 E8.23954
G1 X110.609 Y125.374 E8.41648
G1 X109.865 Y125.639 E8.51125
G1 X108.779 Y125.882 E8.6448
G1 X104.159 Y126.576 E9.20542
G1 X103.373 Y126.654 E9.3002
G1 X102.583 Y126.652 E9.395
G1 X101.798 Y126.57 E9.48971
G1 X101.025 Y126.409 E9.58446
G1 X100.272 Y126.17 E9.67927
G1 X99.547 Y125.857 E9.77403
G1 X98.857 Y125.472 E9.86885
G1 X98.21 Y125.019 E9.96362
G1 X97.613 Y124.503 E10.05831
G1 X97.07 Y123.93 E10.15304
G1 X96.588 Y123.304 E10.24785
G1 X96.172 Y122.633 E10.34259
G1 X95.825 Y121.923 E10.43742
G1 X95.553 Y121.182 E10.53214
G1 X95.356 Y120.417 E10.62694
G1 X95.238 Y119.637 E10.7216
G1 X95.2 Y118.863 E10.8146
G1 X95.2 Y115.136 E11.26184
G1 X95.24 Y114.347 E11.35664
G1 X95.359 Y113.567 E11.45132
G1 X95.557 Y112.802 E11.54615
G1 X95.831 Y112.062 E11.64084
G1 X96.179 Y111.353 E11.73561
G1 X96.597 Y110.682 E11.83048
G1 X97.08 Y110.058 E11.92517
G1 X97.623 Y109.485 E12.0199
G0 F3600 X98.016 Y109.666
G1 F1500 X98.611 Y109.178 E12.11224
G1 X99.253 Y108.755 E12.2045
G1 X99.936 Y108.4 E12.29687
G1 X100.651 Y108.119 E12.38906
G1 X101.393 Y107.913 E12.48147
G1 X101.843 Y107.827 E12.53644
G1 X104.438 Y107.416 E12.85173
G1 X105.73 Y106.758 E13.02572
G1 X106.758 Y105.73 E13.20017
G1 X107.416 Y104.438 E13.37416
G1 X107.828 Y101.841 E13.6897
G1 X107.988 Y101.088 E13.78208
G1 X108.225 Y100.357 E13.87429
G1 X108.537 Y99.653 E13.9667
G1 X108.92 Y98.986 E14.05899
G1 X109.37 Y98.363 E14.15122
G1 X109.883 Y97.789 E14.2436
G1 X110.452 Y97.272 E14.33585
G1 X111.072 Y96.817 E14.42814
G1 X111.736 Y96.428 E14.52048
G1 X112.436 Y96.11 E14.61274
G1 X113.166 Y95.867 E14.70507
G1 X113.917 Y95.701 E14.79737
G1 X114.681 Y95.614 E14.88964
G1 X115.137 Y95.6 E14.94438
G1 X118.863 Y95.6 E15.3915
G1 X119.631 Y95.64 E15.48379
G1 X120.391 Y95.759 E15.5761
G1 X121.134 Y95.957 E15.66837
G1 X121.853 Y96.231 E15.7607
G1 X122.539 Y96.578 E15.85296
G1 X123.186 Y96.994 E15.94526
G1 X123.786 Y97.475 E16.03754
G1 X124.333 Y98.016 E16.12986
G1 X124.821 Y98.611 E16.2222
G1 X125.244 Y99.253 E16.31446
G1 X125.599 Y99.936 E16.40683
G1 X125.88 Y100.651 E16.49902
G1 X126.086 Y101.393 E16.59143
G1 X126.214 Y102.151 E16.68368
G1 X126.263 Y102.919 E16.77602
G1 X126.231 Y103.687 E16.86826
G1 X126.181 Y104.098 E16.91795
G1 X125.488 Y108.717 E17.47843
G1 X125.335 Y109.471 E17.57076
G1 X125.005 Y110.454 E17.69519
G1 X124.44 Y111.816 E17.87213
G1 X124.2 Y112.337 E17.94097
G1 X122.753 Y115.181 E18.32388
G1 X122.369 Y115.847 E18.41613
G1 X122.027 Y116.333 E18.48744
G1 X121.126 Y117.506 E18.66494
G1 X120.49 Y118.231 E18.78067
G1 X118.234 Y120.487 E19.16352
G1 X117.511 Y121.121 E19.27892
G1 X116.339 Y122.022 E19.45631
G1 X115.706 Y122.458 E19.54855
G1 X115.186 Y122.75 E19.62011
G1 X112.339 Y124.199 E20.00346
G1 X111.817 Y124.439 E20.0724
G1 X110.455 Y125.004 E20.24934
G1 X109.731 Y125.262 E20.34158
G1 X108.719 Y125.487 E20.46598
G1 X104.099 Y126.181 E21.0266
G1 X103.334 Y126.255 E21.11883
G1 X102.565 Y126.25 E21.21111
G1 X101.8 Y126.165 E21.30348
G1 X101.049 Y126.001 E21.39572
G1 X100.318 Y125.76 E21.48808
G1 X99.617 Y125.444 E21.58036
G1 X98.952 Y125.058 E21.67263
G1 X98.331 Y124.604 E21.76494
G1 X97.76 Y124.088 E21.85729
G1 X97.246 Y123.516 E21.94957
G1 X96.794 Y122.894 E22.04184
G1 X96.409 Y122.228 E22.13415
G1 X96.096 Y121.526 E22.22638
G1 X95.857 Y120.795 E22.31867
G1 X95.695 Y120.043 E22.41098
G1 X95.612 Y119.278 E22.50332
G1 X95.6 Y118.863 E22.55314
G1 X95.6 Y115.136 E23.00038
G1 X95.64 Y114.368 E23.09267
G1 X95.759 Y113.608 E23.18498
G1 X95.957 Y112.865 E23.27725
G1 X96.231 Y112.146 E23.36958
G1 X96.578 Y111.46 E23.46184
G1 X96.994 Y110.813 E23.55414
G1 X97.475 Y110.213 E23.64642
G1 X98.016 Y109.666 E23.73874
G0 F3600 X98.408 Y109.852
G1 F1500 X98.998 Y109.393 E23.82844
G1 X99.634 Y108.998 E23.91828
G1 X100.308 Y108.674 E24.00802
G1 X101.013 Y108.424 E24.09779
G1 X101.905 Y108.222 E24.20754
G1 X104.563 Y107.801 E24.53047
G1 X105.969 Y107.085 E24.71981
G1 X107.085 Y105.969 E24.9092
G1 X107.801 Y104.563 E25.09854
G1 X108.223 Y101.903 E25.42173
G1 X108.38 Y101.172 E25.51145
G1 X108.614 Y100.461 E25.60127
G1 X108.922 Y99.78 E25.69096
G1 X109.301 Y99.135 E25.78074
G1 X109.747 Y98.534 E25.87055
G1 X110.254 Y97.984 E25.96031
G1 X110.817 Y97.492 E26.05003
G1 X111.43 Y97.062 E26.13988
G1 X112.085 Y96.701 E26.22963
G1 X112.774 Y96.411 E26.31934
G1 X113.491 Y96.196 E26.40916
G1 X114.226 Y96.059 E26.49888
G1 X115.137 Y96 E26.60843
G1 X118.863 Y96 E27.05555
G1 X119.61 Y96.04 E27.14532
G1 X120.348 Y96.159 E27.23502
G1 X121.07 Y96.357 E27.32486
G1 X121.766 Y96.63 E27.41458
G1 X122.429 Y96.977 E27.50437
G1 X123.052 Y97.392 E27.5942
G1 X123.626 Y97.871 E27.68392
G1 X124.147 Y98.408 E27.7737
G1 X124.606 Y98.998 E27.8634
G1 X125.001 Y99.634 E27.95324
G1 X125.325 Y100.308 E28.04298
G1 X125.575 Y101.013 E28.13274
G1 X125.749 Y101.741 E28.22257
G1 X125.844 Y102.483 E28.31233
G1 X125.859 Y103.231 E28.40211
G1 X125.786 Y104.039 E28.49947
G1 X125.093 Y108.658 E29.05995
G1 X124.942 Y109.39 E29.14964
G1 X124.636 Y110.301 E29.26496
G1 X124.071 Y111.663 E29.44191
G1 X123.844 Y112.155 E29.50693
G1 X122.397 Y114.999 E29.88984
G1 X122.023 Y115.647 E29.97962
G1 X121.709 Y116.089 E30.04468
G1 X120.808 Y117.262 E30.22218
G1 X120.207 Y117.948 E30.33162
G1 X117.951 Y120.204 E30.71448
G1 X117.267 Y120.804 E30.82366
G1 X116.095 Y121.705 E31.00106
G1 X115.479 Y122.128 E31.09073
G1 X115.004 Y122.393 E31.156
G1 X112.157 Y123.842 E31.53934
G1 X111.664 Y124.07 E31.60452
G1 X110.302 Y124.635 E31.78146
G1 X109.597 Y124.884 E31.87119
G1 X108.66 Y125.091 E31.98634
G1 X104.04 Y125.785 E32.54696
G1 X103.295 Y125.857 E32.63677
G1 X102.547 Y125.848 E32.72654
G1 X101.804 Y125.76 E32.81632
G1 X101.075 Y125.593 E32.90607
G1 X100.368 Y125.349 E32.99582
G1 X99.691 Y125.031 E33.08558
G1 X99.051 Y124.643 E33.17539
G1 X98.457 Y124.189 E33.2651
G1 X97.915 Y123.673 E33.3549
G1 X97.43 Y123.103 E33.44471
G1 X97.01 Y122.485 E33.53438
G1 X96.657 Y121.825 E33.6242
G1 X96.378 Y121.131 E33.71395
G1 X96.173 Y120.411 E33.80379
G1 X96.047 Y119.674 E33.89351
G1 X96 Y118.863 E33.99099
G1 X96 Y115.136 E34.43823
G1 X96.04 Y114.389 E34.528
G1 X96.159 Y113.651 E34.61771
G1 X96.357 Y112.929 E34.70755
G1 X96.63 Y112.233 E34.79726
G1 X96.977 Y111.57 E34.88706
G1 X97.392 Y110.947 E34.97689
G1 X97.871 Y110.373 E35.0666
G1 X98.408 Y109.852 E35.15638
G0 F3600 X98.265 Y110.538
G1 F1500 X98.799 Y110.045 E35.2436
G1 X99.384 Y109.615 E35.33072
G1 X100.013 Y109.251 E35.41793
G1 X100.678 Y108.958 E35.50513
G1 X101.371 Y108.74 E35.59231
G1 X101.968 Y108.617 E35.66545
G1 X104.686 Y108.187 E35.99567
G1 X106.209 Y107.411 E36.20079
G1 X107.411 Y106.209 E36.40477
G1 X108.187 Y104.686 E36.60989
G1 X108.618 Y101.966 E36.94036
G1 X108.772 Y101.256 E37.02754
G1 X109.002 Y100.567 E37.11471
G1 X109.306 Y99.908 E37.2018
G1 X109.681 Y99.286 E37.28895
G1 X110.123 Y98.709 E37.37617
G1 X110.625 Y98.184 E37.46334
G1 X111.181 Y97.717 E37.55047
G1 X111.786 Y97.314 E37.6377
G1 X112.431 Y96.98 E37.72486
G1 X113.109 Y96.719 E37.81204
G1 X113.811 Y96.535 E37.89913
G1 X114.53 Y96.428 E37.98636
G1 X115.137 Y96.4 E38.05928
G1 X118.863 Y96.4 E38.5064
G1 X119.588 Y96.44 E38.59353
G1 X120.305 Y96.559 E38.68075
G1 X121.004 Y96.757 E38.76793
G1 X121.677 Y97.03 E38.85508
G1 X122.316 Y97.375 E38.94222
G1 X122.913 Y97.789 E39.0294
G1 X123.461 Y98.265 E39.1165
G1 X123.954 Y98.799 E39.20372
G1 X124.384 Y99.384 E39.29084
G1 X124.748 Y100.013 E39.37805
G1 X125.041 Y100.678 E39.46525
G1 X125.259 Y101.371 E39.55243
G1 X125.399 Y102.083 E39.63951
G1 X125.46 Y102.807 E39.72669
G1 X125.441 Y103.533 E39.81384
G1 X125.39 Y103.979 E39.86771
G1 X124.697 Y108.598 E40.4282
G1 X124.55 Y109.31 E40.51544
G1 X124.266 Y110.148 E40.62162
G1 X123.701 Y111.51 E40.79856
G1 X123.487 Y111.974 E40.85988
G1 X122.04 Y114.818 E41.24279
G1 X121.676 Y115.446 E41.32989
G1 X121.392 Y115.845 E41.38867
G1 X120.491 Y117.018 E41.56616
G1 X119.924 Y117.665 E41.66939
G1 X117.668 Y119.921 E42.05225
G1 X117.024 Y120.486 E42.15505
G1 X115.852 Y121.387 E42.33245
G1 X115.252 Y121.798 E42.41972
G1 X114.823 Y122.037 E42.47865
G1 X111.976 Y123.486 E42.862
G1 X111.511 Y123.7 E42.92342
G1 X110.149 Y124.265 E43.10037
G1 X109.464 Y124.506 E43.1875
G1 X108.6 Y124.696 E43.29366
G1 X103.98 Y125.39 E43.85428
G1 X103.257 Y125.458 E43.94143
G1 X102.531 Y125.446 E44.02856
G1 X101.81 Y125.355 E44.11576
G1 X101.104 Y125.185 E44.20291
G1 X100.421 Y124.938 E44.29006
G1 X99.769 Y124.618 E44.37722
G1 X99.156 Y124.228 E44.4644
G1 X98.59 Y123.773 E44.55155
G1 X98.077 Y123.259 E44.63869
G1 X97.624 Y122.691 E44.72587
G1 X97.236 Y122.077 E44.81303
G1 X96.917 Y121.424 E44.90024
G1 X96.673 Y120.741 E44.98727
G1 X96.505 Y120.034 E45.07448
G1 X96.415 Y119.313 E45.16167
G1 X96.4 Y118.863 E45.2157
G1 X96.4 Y115.136 E45.66294
G1 X96.44 Y114.411 E45.75007
G1 X96.559 Y113.694 E45.83729
G1 X96.757 Y112.995 E45.92447
G1 X97.03 Y112.322 E46.01162
G1 X97.375 Y111.683 E46.09876
G1 X97.789 Y111.086 E46.18594
G1 X98.265 Y110.538 E46.27305
G0 F3600 X98.659 Y110.709
G1 F1500 X99.189 Y110.245 E46.35757
G1 X99.768 Y109.845 E46.44202
G1 X100.389 Y109.513 E46.52652
G1 X101.043 Y109.253 E46.61098
G1 X102.03 Y109.012 E46.7329
G1 X104.814 Y108.571 E47.07114
G1 X106.446 Y107.74 E47.29091
G1 X107.74 Y106.446 E47.51051
G1 X108.573 Y104.81 E47.73081
G1 X109.014 Y102.029 E48.0687
G1 X109.163 Y101.341 E48.15318
G1 X109.39 Y100.674 E48.23772
G1 X109.69 Y100.038 E48.32211
G1 X110.061 Y99.439 E48.40666
G1 X110.498 Y98.887 E48.49114
G1 X110.994 Y98.388 E48.57557
G1 X111.544 Y97.948 E48.66009
G1 X112.139 Y97.573 E48.74449
G1 X112.774 Y97.268 E48.82903
G1 X113.439 Y97.037 E48.9135
G1 X114.126 Y96.883 E48.99799
G1 X115.137 Y96.8 E49.11972
G1 X118.863 Y96.8 E49.56684
G1 X119.566 Y96.84 E49.65133
G1 X120.26 Y96.959 E49.73583
G1 X120.935 Y97.157 E49.82024
G1 X121.584 Y97.429 E49.90469
G1 X122.198 Y97.774 E49.9892
G1 X122.769 Y98.185 E50.07362
G1 X123.29 Y98.659 E50.15815
G1 X123.754 Y99.189 E50.24268
G1 X124.154 Y99.768 E50.32712
G1 X124.486 Y100.389 E50.41163
G1 X124.746 Y101.043 E50.49608
G1 X124.93 Y101.723 E50.58061
G1 X125.036 Y102.419 E50.6651
G1 X125.062 Y103.122 E50.74952
G1 X124.994 Y103.92 E50.84562
G1 X124.301 Y108.539 E51.40611
G1 X124.158 Y109.228 E51.49055
G1 X123.897 Y109.995 E51.58777
G1 X123.332 Y111.357 E51.76472
G1 X123.131 Y111.793 E51.82233
G1 X121.684 Y114.637 E52.20524
G1 X121.33 Y115.245 E52.28967
G1 X121.075 Y115.602 E52.34231
G1 X120.174 Y116.775 E52.51981
G1 X119.641 Y117.382 E52.61674
G1 X117.385 Y119.638 E52.9996
G1 X116.78 Y120.169 E53.09619
G1 X115.608 Y121.07 E53.27359
G1 X115.026 Y121.467 E53.35813
G1 X114.641 Y121.681 E53.41099
G1 X111.794 Y123.13 E53.79433
G1 X111.358 Y123.331 E53.85194
G1 X109.996 Y123.896 E54.02889
G1 X109.331 Y124.128 E54.11341
G1 X108.541 Y124.3 E54.21043
G1 X103.921 Y124.994 E54.77105
G1 X103.22 Y125.059 E54.85553
G1 X102.516 Y125.044 E54.94003
G1 X101.819 Y124.949 E55.02444
G1 X101.136 Y124.776 E55.10899
G1 X100.478 Y124.527 E55.19341
G1 X99.852 Y124.204 E55.27794
G1 X99.267 Y123.813 E55.36238
G1 X98.73 Y123.358 E55.44684
G1 X98.248 Y122.845 E55.53131
G1 X97.827 Y122.281 E55.61577
G1 X97.473 Y121.672 E55.7003
G1 X97.19 Y121.027 E55.78482
G1 X96.982 Y120.355 E55.86923
G1 X96.852 Y119.663 E55.95373
G1 X96.8 Y118.863 E56.04993
G1 X96.8 Y115.136 E56.49717
G1 X96.84 Y114.433 E56.58167
G1 X96.959 Y113.739 E56.66616
G1 X97.157 Y113.064 E56.75057
G1 X97.429 Y112.415 E56.83502
G1 X97.774 Y111.801 E56.91953
G1 X98.185 Y111.23 E57.00396
G1 X98.659 Y110.709 E57.08848
G0 F3600 X99.053 Y110.887
G1 F1500 X99.578 Y110.453 E57.17022
G1 X100.15 Y110.084 E57.2519
G1 X100.762 Y109.785 E57.33364
G1 X101.404 Y109.56 E57.41527
G1 X102.093 Y109.407 E57.49997
G1 X104.937 Y108.957 E57.84549
G1 X106.686 Y108.066 E58.08104
G1 X108.066 Y106.686 E58.31523
G1 X108.958 Y104.934 E58.55115
G1 X109.409 Y102.091 E58.89658
G1 X109.555 Y101.426 E58.97828
G1 X109.777 Y100.783 E59.05991
G1 X110.074 Y100.17 E59.14165
G1 X110.441 Y99.596 E59.2234
G1 X110.872 Y99.069 E59.3051
G1 X111.362 Y98.597 E59.38674
G1 X111.904 Y98.185 E59.46844
G1 X112.491 Y97.839 E59.5502
G1 X113.114 Y97.564 E59.63192
G1 X113.765 Y97.365 E59.71361
G1 X114.435 Y97.243 E59.79533
G1 X115.137 Y97.2 E59.87973
G1 X118.863 Y97.2 E60.32685
G1 X119.543 Y97.24 E60.40859
G1 X120.213 Y97.359 E60.49025
G1 X120.865 Y97.556 E60.57198
G1 X121.489 Y97.828 E60.65367
G1 X122.077 Y98.172 E60.73542
G1 X122.621 Y98.582 E60.81716
G1 X123.112 Y99.053 E60.89881
G1 X123.546 Y99.578 E60.98055
G1 X123.915 Y100.15 E61.06223
G1 X124.214 Y100.762 E61.14397
G1 X124.439 Y101.404 E61.2256
G1 X124.588 Y102.069 E61.30738
G1 X124.657 Y102.746 E61.38904
G1 X124.647 Y103.427 E61.47077
G1 X124.599 Y103.861 E61.52317
G1 X123.906 Y108.48 E62.08365
G1 X123.765 Y109.146 E62.16534
G1 X123.527 Y109.841 E62.2535
G1 X122.962 Y111.203 E62.43044
G1 X122.774 Y111.611 E62.48435
G1 X121.327 Y114.455 E62.86726
G1 X120.984 Y115.043 E62.94895
G1 X120.758 Y115.358 E62.99547
G1 X119.857 Y116.531 E63.17296
G1 X119.358 Y117.099 E63.26369
G1 X117.102 Y119.355 E63.64655
G1 X116.536 Y119.852 E63.73694
G1 X115.364 Y120.753 E63.91433
G1 X114.801 Y121.136 E63.99604
G1 X114.46 Y121.324 E64.04277
G1 X111.613 Y122.773 E64.42611
G1 X111.204 Y122.961 E64.48013
G1 X109.842 Y123.526 E64.65707
G1 X109.199 Y123.75 E64.73878
G1 X108.482 Y123.905 E64.82681
G1 X103.862 Y124.599 E65.38743
G1 X103.183 Y124.66 E65.46924
G1 X102.503 Y124.642 E65.55087
G1 X101.829 Y124.544 E65.6326
G1 X101.171 Y124.367 E65.71436
G1 X100.539 Y124.115 E65.79601
G1 X99.94 Y123.79 E65.87779
G1 X99.384 Y123.398 E65.95942
G1 X98.878 Y122.943 E66.04108
G1 X98.428 Y122.432 E66.12279
G1 X98.041 Y121.871 E66.20457
